X:1516
T:Paddy's Surprise
R:reel
N:"collected from F. O'Neill"
B:"O'Neill's Dance Music of Ireland, 1516"
T: iongantas .paidin.
Z:transcribed by John B. Walsh, walsh@math.ubc.ca 8/23/96
M:C|
L:1/8
K:G
((3DEF)|G2 (BA) GABc|dBec dBAB|G2 (BA) GABc|dcAB GFED|
G2 (BA) GABc|dBec d2 ((3def)|gfge dBge|dBAB G2||
((3def)|gfgd edBd|gabg agef|gfgd edBd|cABG AGEG|
gfgd edBd|gabg agef|gfge dBge|dBAB G2||


